assets/images/common/logos/logo.white.svg

<svg height="99" width="99" xmlns="http://www.w3.org/2000/svg"><path d="m98.012 42.736-4.884.829s-1.297.079-1.849 1.415c-.552 1.333-1.928 4.951-1.928 4.951s-.124.729-.93.818c-.806.091-1.147-.645-1.147-.645s-1.608-2.939-2.415-4.35c-.806-1.41-2.267-1.325-2.267-1.325l-5.114-.176s-.571-.046-.865-.693c-.294-.644.23-1.144.23-1.144s2.571-2.766 3.613-3.918.647-2.191.647-2.191l-1.519-4.863s-.251-.674.338-1.188c.59-.514 1.296-.054 1.296-.054s2.831 1.26 4.369 1.885c1.299.557 2.542-.273 2.542-.273l4.298-2.463s.566-.541 1.255-.079c.718.481.478 1.143.478 1.143l-.656 4.976s-.167 1.211 1.032 2.186c1.2.975 3.883 3.179 3.883 3.179s.682.367.504 1.079c-.191.8-.911.901-.911.901zm-13.963-19.497c-1.75.029-3.191-1.354-3.22-3.088-.028-1.733 1.367-3.161 3.117-3.189 1.749-.028 3.19 1.354 3.219 3.088.028 1.732-1.367 3.161-3.116 3.189zm-12.476-3.718c-3.338 1.032-10.303-2.572-10.303-2.572l-5.791 7.914s1.024 2.33-.512 4.896c1.021 2.136.067 4.107.067 4.107s2.234 3.874 2.886 7.579c2.651 5.239 3.523 10.307 3.523 10.307s2.607 9.509 3.528 10.786c-3.047.068-28.154 1.999-47.23 11.001.147-10.608 1.762-34.24 6.079-41.912 6.328-11.247 23.592-29.513 29.494-30.585 5.902-1.073 29.22 13.024 28.86 15.181-.359 2.157-7.264 2.267-10.601 3.298zm-38.886 16.878c-.197-.295-.51-.198-.51-.198s-1.706.189-2.345.241c-.638.052-.929-.435-.929-.435l-1.304-1.733s-.185-.259-.539-.174c-.318.074-.327.412-.327.412s-.335 1.483-.481 2.146c-.146.661-.658.838-.658.838l-2.1.739s-.31.04-.357.416c-.045.36.283.471.283.471l1.834 1.177s.577.318.615.934c.061.724.129 2.075.129 2.075s-.041.368.28.493c.322.127.538-.105.538-.105l1.62-1.564s.332-.361.997-.186c.664.174 2.272.621 2.272.621s.303.103.499-.14c.197-.244.101-.475.101-.475l-.953-2.023s-.326-.551.071-1.147c.397-.595 1.238-1.808 1.238-1.808s.223-.279.026-.575zm10.793-13.712s-1.11-.615-1.518-.856c-.407-.241-.371-.659-.371-.659l-.032-1.602s.001-.235-.25-.335c-.223-.092-.375.109-.375.109s-.847.75-1.223 1.087c-.375.336-.761.224-.761.224l-1.587-.45s-.204-.11-.395.098c-.184.197-.035.404-.035.404l.593 1.493s.21.436-.035.826c-.278.461-.824 1.305-.824 1.305s-.185.203-.046.417c.139.211.37.165.37.165l1.656-.249s.357-.077.682.313c.325.388 1.1 1.344 1.1 1.344s.137.192.361.129c.224-.062.267-.243.267-.243l.305-1.626s.043-.471.541-.66c.498-.19 1.532-.562 1.532-.562s.256-.073.266-.335-.221-.337-.221-.337zm7.842-10.926c-.095-.141-.245-.095-.245-.095s-.819.091-1.126.116c-.306.025-.446-.209-.446-.209l-.627-.833s-.088-.123-.258-.083c-.153.036-.157.197-.157.197s-.161.714-.231 1.031-.317.402-.317.402l-1.008.357s-.149.018-.171.199c-.022.171.135.226.135.226l.881.564s.277.154.296.45c.029.346.062.996.062.996s-.02.176.134.238c.155.059.259-.052.259-.052l.777-.752s.16-.172.479-.088c.319.083 1.092.297 1.092.297s.145.049.239-.066c.094-.118.048-.228.048-.228l-.457-.973s-.157-.263.034-.55c.191-.286.595-.868.595-.868s.106-.134.012-.276zm2.312 27.113c-.282-.489-.855-.334-.855-.334s-2.665.183-3.851.271c-1.186.089-1.74-.671-1.74-.671l-2.291-3.104s-.22-.493-.875-.383c-.629.104-.654.701-.654.701l-1.07 3.621s-.246 1.111-1.264 1.482c-1.188.462-3.43 1.247-3.43 1.247s-.638.115-.69.708c-.052.595.447.836.447.836l3.436 1.903s.775.368.813 1.554c.037 1.187.086 4.068.086 4.068s-.024.553.483.756c.507.204.849-.071.849-.071l2.932-2.582s.764-.815 1.965-.454c1.2.361 3.66 1.148 3.66 1.148s.582.228.981-.242c.4-.473.079-.944.079-.944s-1.167-2.728-1.573-3.757c-.406-1.03.27-1.754.27-1.754l2.268-3.02s.345-.435.024-.979zm-35.226 36.337c.016-.007.031-.012.046-.019-.008.01-.017.025-.025.036.015-.004.03-.007.045-.011-.001-.019-.004-.026-.007-.029 18.14-6.996 35.112-9.619 44.671-10.37l-19.876 20.872c-7.786 1.335-15.625 2.303-19.464 2.306-8.231.279-25.51-.62-23-3.984.086-.025.171-.051.257-.076 7.256-3.579 12.907-7.643 17.356-8.703-.001-.005-.003-.012-.003-.022zm45.118-8.339c13.128-14.914 16.227-18.073 16.227-18.073 1.071-1.215 1.452-2.623 2.679-1.562 1.227 1.062-.127 1.627-1.198 2.842 0 0-2.631 3.614-15.734 18.499-10.294 11.695-23.311 28.954-23.311 28.954-1.07 1.214-2.932 1.341-4.159.28s-1.354-2.906-.284-4.123c0 0 15.529-15.171 25.78-26.817zm28.023 2.46c1.336 3.702-19.742 10.217-20.136 10.029-2.881.973-9.758 2.843-16.117 4.179l15.745-18.822c4.564.112 20.503 3.478 20.508 4.614z" fill="#fff" fill-rule="evenodd"/></svg>

<svg 
 xmlns="http://www.w3.org/2000/svg"
 xmlns:xlink="http://www.w3.org/1999/xlink"
 width="99px" height="99px">
<path fill-rule="evenodd"  fill="rgb(255, 255, 255)"
 d="M98.012,42.736 L93.128,43.565 C93.128,43.565 91.831,43.644 91.279,44.980 C90.727,46.313 89.351,49.931 89.351,49.931 C89.351,49.931 89.227,50.660 88.421,50.749 C87.615,50.840 87.274,50.104 87.274,50.104 C87.274,50.104 85.666,47.165 84.859,45.754 C84.053,44.344 82.592,44.429 82.592,44.429 L77.478,44.253 C77.478,44.253 76.907,44.207 76.613,43.560 C76.319,42.916 76.843,42.416 76.843,42.416 C76.843,42.416 79.414,39.650 80.456,38.498 C81.498,37.346 81.103,36.307 81.103,36.307 L79.584,31.444 C79.584,31.444 79.333,30.770 79.922,30.256 C80.512,29.742 81.218,30.202 81.218,30.202 C81.218,30.202 84.049,31.462 85.587,32.087 C86.886,32.644 88.129,31.814 88.129,31.814 L92.427,29.351 C92.427,29.351 92.993,28.810 93.682,29.272 C94.400,29.753 94.160,30.415 94.160,30.415 L93.504,35.391 C93.504,35.391 93.337,36.602 94.536,37.577 C95.736,38.552 98.419,40.756 98.419,40.756 C98.419,40.756 99.101,41.123 98.923,41.835 C98.732,42.635 98.012,42.736 98.012,42.736 ZM84.049,23.239 C82.299,23.268 80.858,21.885 80.829,20.151 C80.801,18.418 82.196,16.990 83.946,16.962 C85.695,16.934 87.136,18.316 87.165,20.050 C87.193,21.782 85.798,23.211 84.049,23.239 ZM71.573,19.521 C68.235,20.553 61.270,16.949 61.270,16.949 L55.479,24.863 C55.479,24.863 56.503,27.193 54.967,29.759 C55.988,31.895 55.034,33.866 55.034,33.866 C55.034,33.866 57.268,37.740 57.920,41.445 C60.571,46.684 61.443,51.752 61.443,51.752 C61.443,51.752 64.050,61.261 64.971,62.538 C61.924,62.606 36.817,64.537 17.741,73.539 C17.888,62.931 19.503,39.299 23.820,31.627 C30.148,20.380 47.412,2.114 53.314,1.042 C59.216,-0.031 82.534,14.066 82.174,16.223 C81.815,18.380 74.910,18.490 71.573,19.521 ZM32.687,36.399 C32.490,36.104 32.177,36.201 32.177,36.201 C32.177,36.201 30.471,36.390 29.832,36.442 C29.194,36.494 28.903,36.007 28.903,36.007 L27.599,34.274 C27.599,34.274 27.414,34.015 27.060,34.100 C26.742,34.174 26.733,34.512 26.733,34.512 C26.733,34.512 26.398,35.995 26.252,36.658 C26.106,37.319 25.594,37.496 25.594,37.496 L23.494,38.235 C23.494,38.235 23.184,38.275 23.137,38.651 C23.092,39.011 23.420,39.122 23.420,39.122 L25.254,40.299 C25.254,40.299 25.831,40.617 25.869,41.233 C25.930,41.957 25.998,43.308 25.998,43.308 C25.998,43.308 25.957,43.676 26.278,43.801 C26.600,43.928 26.816,43.696 26.816,43.696 L28.436,42.132 C28.436,42.132 28.768,41.771 29.433,41.946 C30.097,42.120 31.705,42.567 31.705,42.567 C31.705,42.567 32.008,42.670 32.204,42.427 C32.401,42.183 32.305,41.952 32.305,41.952 L31.352,39.929 C31.352,39.929 31.026,39.378 31.423,38.782 C31.820,38.187 32.661,36.974 32.661,36.974 C32.661,36.974 32.884,36.695 32.687,36.399 ZM43.480,22.687 C43.480,22.687 42.370,22.072 41.962,21.831 C41.555,21.590 41.591,21.172 41.591,21.172 L41.559,19.570 C41.559,19.570 41.560,19.335 41.309,19.235 C41.086,19.143 40.934,19.344 40.934,19.344 C40.934,19.344 40.087,20.094 39.711,20.431 C39.336,20.767 38.950,20.655 38.950,20.655 L37.363,20.205 C37.363,20.205 37.159,20.095 36.968,20.303 C36.784,20.500 36.933,20.707 36.933,20.707 L37.526,22.200 C37.526,22.200 37.736,22.636 37.491,23.026 C37.213,23.487 36.667,24.331 36.667,24.331 C36.667,24.331 36.482,24.534 36.621,24.748 C36.760,24.959 36.991,24.913 36.991,24.913 L38.647,24.664 C38.647,24.664 39.004,24.587 39.329,24.977 C39.654,25.365 40.429,26.321 40.429,26.321 C40.429,26.321 40.566,26.513 40.790,26.450 C41.014,26.388 41.057,26.207 41.057,26.207 L41.362,24.581 C41.362,24.581 41.405,24.110 41.903,23.921 C42.401,23.731 43.435,23.359 43.435,23.359 C43.435,23.359 43.691,23.286 43.701,23.024 C43.711,22.762 43.480,22.687 43.480,22.687 ZM51.322,11.761 C51.227,11.620 51.077,11.666 51.077,11.666 C51.077,11.666 50.258,11.757 49.951,11.782 C49.645,11.807 49.505,11.573 49.505,11.573 L48.878,10.740 C48.878,10.740 48.790,10.617 48.620,10.657 C48.467,10.693 48.463,10.854 48.463,10.854 C48.463,10.854 48.302,11.568 48.232,11.885 C48.162,12.202 47.915,12.287 47.915,12.287 L46.907,12.644 C46.907,12.644 46.758,12.662 46.736,12.843 C46.714,13.014 46.871,13.069 46.871,13.069 L47.752,13.633 C47.752,13.633 48.029,13.787 48.048,14.083 C48.077,14.429 48.110,15.079 48.110,15.079 C48.110,15.079 48.090,15.255 48.244,15.317 C48.399,15.376 48.503,15.265 48.503,15.265 L49.280,14.513 C49.280,14.513 49.440,14.341 49.759,14.425 C50.078,14.508 50.851,14.722 50.851,14.722 C50.851,14.722 50.996,14.771 51.090,14.656 C51.184,14.538 51.138,14.428 51.138,14.428 L50.681,13.455 C50.681,13.455 50.524,13.192 50.715,12.905 C50.906,12.619 51.310,12.037 51.310,12.037 C51.310,12.037 51.416,11.903 51.322,11.761 ZM53.634,38.874 C53.352,38.385 52.779,38.540 52.779,38.540 C52.779,38.540 50.114,38.723 48.928,38.811 C47.742,38.900 47.188,38.140 47.188,38.140 L44.897,35.036 C44.897,35.036 44.677,34.543 44.022,34.653 C43.393,34.757 43.368,35.354 43.368,35.354 L42.298,38.975 C42.298,38.975 42.052,40.086 41.034,40.457 C39.846,40.919 37.604,41.704 37.604,41.704 C37.604,41.704 36.966,41.819 36.914,42.412 C36.862,43.007 37.361,43.248 37.361,43.248 L40.797,45.151 C40.797,45.151 41.572,45.519 41.610,46.705 C41.647,47.892 41.696,50.773 41.696,50.773 C41.696,50.773 41.672,51.326 42.179,51.529 C42.686,51.733 43.028,51.458 43.028,51.458 L45.960,48.876 C45.960,48.876 46.724,48.061 47.925,48.422 C49.125,48.783 51.585,49.570 51.585,49.570 C51.585,49.570 52.167,49.798 52.566,49.328 C52.966,48.855 52.645,48.384 52.645,48.384 C52.645,48.384 51.478,45.656 51.072,44.627 C50.666,43.597 51.342,42.873 51.342,42.873 L53.610,39.853 C53.610,39.853 53.955,39.418 53.634,38.874 ZM18.408,75.211 C18.424,75.204 18.439,75.199 18.454,75.192 C18.446,75.202 18.437,75.217 18.429,75.228 C18.444,75.224 18.459,75.221 18.474,75.217 C18.473,75.198 18.470,75.191 18.467,75.188 C36.607,68.192 53.579,65.569 63.138,64.818 L43.262,85.690 C35.476,87.025 27.637,87.993 23.798,87.996 C15.567,88.275 -1.712,87.376 0.798,84.012 C0.884,83.987 0.969,83.961 1.055,83.936 C8.311,80.357 13.962,76.293 18.411,75.233 C18.410,75.228 18.408,75.221 18.408,75.211 ZM63.526,66.872 C76.654,51.958 79.753,48.799 79.753,48.799 C80.824,47.584 81.205,46.176 82.432,47.237 C83.659,48.299 82.305,48.864 81.234,50.079 C81.234,50.079 78.603,53.693 65.500,68.578 C55.206,80.273 42.189,97.532 42.189,97.532 C41.119,98.746 39.257,98.873 38.030,97.812 C36.803,96.751 36.676,94.906 37.746,93.689 C37.746,93.689 53.275,78.518 63.526,66.872 ZM91.549,69.332 C92.885,73.034 71.807,79.549 71.413,79.361 C68.532,80.334 61.655,82.204 55.296,83.540 L71.041,64.718 C75.605,64.830 91.544,68.196 91.549,69.332 Z"/>
</svg>
